!!!!SEGMENT: pl-sa--228-a-vi-32--004_luna-georgius--litania-ex-d-sancta-trinitas.krn
!!!cenid: 17xx:449
!!!COM: Luna, Georgius
!!!COM-rismid: pe41010079
!!!CDT:
!!!CNT:
!!!OPR: Litania ex D
!!!OTL: Sancta trinitas
!!!OMV: 004
!!!PDT:
!!!AGN: Sacred; Mass
!!!SMS-siglum: PL-SA
!!!SMS-shelfmark: 228/A VI 32
!!!SMS-shelfwork: 001-004 M
!!!SMS-variant: Violino Primo: PL-SA 228/A VI 32:11
!!!SMS-altvar: Violino Imo: PL-SA 228/A VI 32:29
!!!NIFC-rismid: 1001068968
!!!system-decoration: [(s1,s2)][(s3,s4)][(s5,s6)]s7
!!!key:
**kern	**kern	**kern	**kern	**text	**kern	**text	**kern	**kern
*part7	*part6	*part5	*part4	*part4	*part3	*part3	*part2	*part1
*staff7	*staff6	*staff5	*staff4	*staff4	*staff3	*staff3	*staff2	*staff1
*Iempty	*Ivioln	*Ivioln	*Itenor	*	*Ivox	*	*Iempty	*Iempty
*I"Fondamemto	*I"Violino Secundo	*I"Violino Primo	*I"Tenore	*	*I"Canto	*	*I"Clarino Socundo	*I"Clarino Primo
*I'bc	*I'vl 2	*I'vl 1	*I'T	*	*I'S	*	*I'clno 2 in D	*I'clno 1 in D
*clefF4	*clefG2	*clefG2	*clefC4	*	*clefC1	*	*clefG2	*clefG2
*	*	*	*	*	*	*	*ITrd-1c-2	*ITrd-1c-2
*k[f#c#]	*k[f#c#]	*k[f#c#]	*k[f#c#]	*	*k[f#c#]	*	*k[f#c#]	*k[f#c#]
*b:	*b:	*b:	*b:	*	*b:	*	*b:	*b:
*M4/4	*M4/4	*M4/4	*M4/4	*	*M4/4	*	*M4/4	*M4/4
*met(c)	*met(c)	*met(c)	*met(c)	*	*met(c)	*	*met(c)	*met(c)
=1	=1	=1	=1	=1	=1	=1	=1	=1
*2\right	*2\right	*2\right	*2\right	*	*2\right	*	*2\right	*2\right
!LO:TX:a:i:t=adagio	!LO:TX:a:i:t=adagio	!	!LO:TX:a:i:t=adagio	!	!LO:TX:a:i:t=adagio	!	!LO:TX:a:i:t=adagio	!LO:TX:a:i:t=adagio
!LO:TX:b:Bi:t=ſancta Trinitas	!LO:TX:b:Bi:t=ſancta Trinitas	!LO:TX:b:Bi:t=ſancta Trinitas	!	!	!	!	!LO:TX:b:Bi:t=ſancta Trinitas	!LO:TX:b:Bi:t=ſancta Trinitas
4B\	4dd\	4ff#\	4d\	ſan-	4ff#\	ſan-	4f#/	4f#/
4A#X\	4cc#\	4ff#\	4c#\	-cta	4ff#\	-cta	4f#/	4f#/
4B\	4dd\	4ff#\	8d\	tri-	8ff#\	tri-	4f#/	4f#/
.	.	.	8d\	-ni-	8ff#\	-ni-	.	.
4F#\	4cc#\	4ff#\	4c#\	-tas	4ff#\	-tas	4f#/	4f#/
=2	=2	=2	=2	=2	=2	=2	=2	=2
4G\	4b\	4dd\	4B\	u-	4dd\	u-	4f#/	4f#/
4E\	4b\	4gg\	4c#\	-nus	4ee\	-nus	8f#/L	8f#/L
.	.	.	.	.	.	.	8f#/J	8f#/J
4F#\	4cc#\	4aa#X\	4A#X\	De-	4cc#\	de-	4f#/	4f#/
4BB/	4dd\	4bb\	4B\	-us	4dd\	-us	4f#/	4f#/
=3	=3	=3	=3	=3	=3	=3	=3	=3
*	*	*	*	*ij	*	*	*	*
4d\	4ff#\	4aan\	4d\	ſan-	4ff#\	ſan-	4dd\	4ff#\
4c#\	4ee\	4aa\	4c#\	-cta	4ee\	-cta	4a/	4ee\
4d\	4ff#\	4aa\	8d\	tri-	8ff#\	tri-	4dd\	4ff#\
.	.	.	8d\	-ni-	8ff#\	-ni-	.	.
4A\	4ee\	4aa\	4c#\	-tas	4ee\	-tas	4a/	4ee\
!	!	!	!	!	!LO:LB:g=original	!	!	!
=4	=4	=4	=4	=4	=4	=4	=4	=4
4G\	4dd\	4bb\	4B\	u-	4dd\	u-	4dd\	4dd\
4E\	4dd\	4bb\	4G/	-nus	4ee\	-nus	8dd\L	8dd\L
.	.	.	.	.	.	.	8dd\J	8dd\J
4A\	4ee\	4ccc#\	4e\	De-	4cc#\	de-	4a/	4ee\
4D\	4ff#\	4ddd\	4f#\	-us	4dd\	-us	4dd\	4ff#\
*	*	*	*	*Xij	*	*	*	*
=5	=5	=5	=5	=5	=5	=5	=5	=5
4D\	4ff#\	4aa\	4A\	mi-	4ff#\	mi-	4dd\	4ff#\
4D\	4ff#\	4ddd\	4A\	-se-	4ff#\	-se-	4dd\	4ff#\
4A\	4ee\	4ccc#\	4c#\	-re-	4ee\	-re-	4a/	4ee\
4AA/	4ee\	4ccc#\	4c#\	-re	4ee\	-re	4a/	4ee\
=6	=6	=6	=6	=6	=6	=6	=6	=6
*	*	*	*	*ij	*	*	*	*
4B\	4dd\	4ff#\	4F#/	mi-	4dd\	mi-	4f#/	4f#/
4BB/	4dd\	4bb\	4F#/	-se-	4dd\	-se-	8f#/L	8f#/L
.	.	.	.	.	.	.	8f#/J	8f#/J
4F#\	4cc#\	4aa#X\	4A#X\	-re-	4cc#\	-re-	4f#/	4f#/
4FF#/	4cc#\	4aa#\	4A#\	-re	4cc#\	-re	4f#/	4f#/
*	*	*	*	*Xij	*	*	*	*
=7	=7	=7	=7	=7	=7	=7	=7	=7
!	!	!	!	!	!	!	!	!LO:SIC:s=4gg:v
4G\	4b\	4dd\	4B\	mi-	4dd\	mi-	4dd\	4ff#\
!	!	!	!	!	!LO:SIC:s=4ee:v	!	!	!
4GG/	4ee\	4gg\	4B\	-se-	4dd\	-se-	4ee\	4gg\
4A\	4cc#\	4ee\	4c#\	-re-	4ee\	-re-	4a/	4ee\
4D\	4dd\	4ff#\	4d\	-re	4ff#\	-re	4dd\	4ff#\
=8	=8	=8	=8	=8	=8	=8	=8	=8
4A\	2cc#\	2ee\	2c#\	no-	2ee\	no-	2a/	2ee\
4AA/	.	.	.	.	.	.	.	.
2D\	2dd\	2ff#;\	2d\	-bis	2ff#\	-bis	2dd\	2ff#;\
*2\left	*2\left	*2\left	*2\left	*	*2\left	*	*2\left	*2\left
!LO:SIC:o=&colon;||&colon;:v:t=ozdobna kreska taktowa &colon;||&colon;	!LO:SIC:o=&colon;||&colon;:v:t=ozdobna kreska taktowa &colon;||&colon;	!LO:SIC:o=&colon;||&colon;:v:t=ozdobna kreska taktowa &colon;||&colon;	!	!	!	!	!	!
==	==	==	==	==	==	==	==	==
*-	*-	*-	*-	*-	*-	*-	*-	*-
!!title: @{OTL};
!!!RDF**kern: > = above
!!!RDF**kern: < = below
!!!EED: Wojciech Jakubiak-Danek
!!!EST: 2020-10-14
!!!URL-scan: http://bc.bdsandomierz.pl/dlibra/publication/1604/edition/1572/content
!!!ONB-nifc: UWAGA: części Litanii: Sinfonia, Kyrie, Pater de caelis, Sancta trinitas, Sancta Maria,
!!!AIN: 3 empty 1 tenor 2 violn 1 vox
!!!ENC: Krzysztof Stępień
!!!END: 2020-05-20
